icons/bi_telegram.svg

<svg width="50" height="50" viewBox="0 0 50 50" fill="none" xmlns="http://www.w3.org/2000/svg">
<g clip-path="url(#clip0_2212_5)">
<path d="M47.9999 24C47.9999 30.3652 45.4713 36.4697 40.9704 40.9706C36.4696 45.4714 30.3651 48 23.9999 48C17.6347 48 11.5302 45.4714 7.02932 40.9706C2.52844 36.4697 -0.00012207 30.3652 -0.00012207 24C-0.00012207 17.6348 2.52844 11.5303 7.02932 7.02944C11.5302 2.52856 17.6347 0 23.9999 0C30.3651 0 36.4696 2.52856 40.9704 7.02944C45.4713 11.5303 47.9999 17.6348 47.9999 24ZM24.8609 17.718C22.5269 18.69 17.8589 20.7 10.8629 23.748C9.72888 24.198 9.13188 24.642 9.07788 25.074C8.98788 25.803 9.90288 26.091 11.1479 26.484L11.6729 26.649C12.8969 27.048 14.5469 27.513 15.4019 27.531C16.1819 27.549 17.0489 27.231 18.0059 26.571C24.5429 22.158 27.9179 19.929 28.1279 19.881C28.2779 19.845 28.4879 19.803 28.6259 19.929C28.7669 20.052 28.7519 20.289 28.7369 20.352C28.6469 20.739 25.0559 24.075 23.1989 25.803C22.6199 26.343 22.2089 26.724 22.1249 26.811C21.9399 27 21.7519 27.1861 21.5609 27.369C20.4209 28.467 19.5689 29.289 21.6059 30.633C22.5869 31.281 23.3729 31.812 24.1559 32.346C25.0079 32.928 25.8599 33.507 26.9639 34.233C27.2429 34.413 27.5129 34.608 27.7739 34.794C28.7669 35.502 29.6639 36.138 30.7649 36.036C31.4069 35.976 32.0699 35.376 32.4059 33.576C33.2009 29.325 34.7639 20.118 35.1239 16.323C35.1458 16.0075 35.1328 15.6906 35.0849 15.378C35.0566 15.1258 34.9346 14.8934 34.7429 14.727C34.4699 14.5386 34.1445 14.4409 33.8129 14.448C32.9129 14.463 31.5239 14.946 24.8609 17.718Z" fill="white"/>
</g>
<defs>
<clipPath id="clip0_2212_5">
<rect width="50" height="50" fill="white"/>
</clipPath>
</defs>
</svg>

<svg width="50" height="50" fill="none" xmlns="http://www.w3.org/2000/svg"><g clip-path="url(#a)"><path d="M48 24a24 24 0 1 1-48 0 24 24 0 0 1 48 0Zm-23.14-6.282c-2.333.972-7.001 2.982-13.997 6.03-1.134.45-1.731.894-1.785 1.326-.09.729.825 1.017 2.07 1.41l.525.165c1.224.399 2.874.864 3.729.882.78.018 1.647-.3 2.604-.96 6.537-4.413 9.912-6.642 10.122-6.69.15-.036.36-.078.498.048.14.123.126.36.11.423-.09.387-3.68 3.723-5.537 5.451-.58.54-.99.921-1.074 1.008-.185.189-.373.375-.564.558-1.14 1.098-1.992 1.92.045 3.264.98.648 1.767 1.179 2.55 1.713.852.582 1.704 1.161 2.808 1.887.279.18.549.375.81.561.993.708 1.89 1.344 2.99 1.242.643-.06 1.306-.66 1.642-2.46.795-4.251 2.358-13.458 2.718-17.253a4.281 4.281 0 0 0-.04-.945 1.011 1.011 0 0 0-.341-.651 1.578 1.578 0 0 0-.93-.279c-.9.015-2.29.498-8.952 3.27Z" fill="#fff"/></g><defs><clipPath id="a"><path fill="#fff" d="M0 0h50v50H0z"/></clipPath></defs></svg>
